X: 912
T: Gözümde Hep Gül Yüzün
C: ?
O: Turkey
F: http://compmusic.upf.edu/node/140
N: sultaniyegah--sarki--curcuna--gozumde_hep--
N: makam= sultaniyegah
N: form= sarki
N: usul= curcuna = 10/8
M: 10/8
L: 1/16
K: C _B ^c  
Q: 1/4=240
%%MIDI tuningsystem comma53
A4 B2c2 d2e2 g2f2 e2d2  | e2f2 g2a2 e2f2 g2a6  | \
w:  ARANAĞME  |   | 
b3a g2b4a2 g2f2 e2d2  | 
w:   | 
A2B2 c2f2 e2d2 c2d6  | =c4 c2d4B2 A2G6  | \
w:   |   | 
d2=c2 B2A2 G2F2 E2F6  | 
w:   | 
D2E2 F2G2 A2G2 A2F2 E2D2  | E2G2 F2E2 D2C2 E2D4z2  | \
w:   |   | 
A4 B2c2 d2e2 g2f2 e2d2  | 
w:  ARANAĞME  | 
e2f2 g2a2 e2f2 g2a6  | b3a g2b4a2 g2f2 e2d2  | \
w:   |   | 
A2B2 c2f2 e2d2 c2d6  | 
w:   | 
=c4 c2d4B2 A2G6  | d2=c2 B2A2 G2F2 E2F6  | \
w:   |   | 
D2E2 F2G2 A2G2 A2F2 E2D2  | 
w:   | 
E2G2 F2E2 D2C2 E2D4z2  | z4 A2d4e4f6  | \
w:   |  Gö züm de  hep   | 
e4 d2d2 c2d8-d2  | z4 e2f4g4a4g2  | 
w:  gül  *  yü *  zün   |  gü lis tan  ol  | 
g4 f2f2 e2f4a6  | z4 a2f4e4g4e2  | e4 d2d2 c2d8-d2  | \
w:  du  *  ci *  han   |  gü lis tan  ol  |  du  *  ci *  han    | 
d3=c B2A2 G2F2 E2D6  | 
w:  SAZ  | 
z4 A2d4e4f6  | e4 d2d2 c2d8-d2  | z4 e2f4g4a4g2  | \
w:  Gö züm de  hep   |  gül  *  yü *  zün   |  gü lis tan  ol  | 
g4 f2f2 e2f4a6  | 
w:  du  *  ci *  han   | 
z4 a2f4e4g4e2  | e4 d2d2 c2d8-d2  | A8-A2B2 c2d6  | \
w:  gü lis tan  ol  |  du  *  ci *  han    |  SAZ  | 
=c6d4d4e4c2  | 
w:  Mev sim ler  ba  | 
=c4 B2B2 A2A8z2  | A6d4=c4d6  | =c2d2 c2B2 A2G2 FEF6  | \
w:  har  *  ol *  du   |  ne  kış  kal dı   |  ne  *  *  ha *  zan   | 
E6F4D4F6  | 
w:  ne  kış  kal dı   | 
E4 D2D2 C2D8-D2  | A8-A2B2 c2d6  | =c6d4d4e4c2  | \
w:  ne  *  ha *  zan    |  SAZ  |  Mev sim ler  ba  | 
=c4 B2B2 A2A8z2  | 
w:  har  *  ol *  du   | 
A6d4=c4d6  | =c2d2 c2B2 A2G2 FEF6  | \
w:  ne  kış  kal dı   |  ne  *  *  ha *  zan   | 
E6F4D4F6  | E4 D2D2 C2D8-D2  | 
w:  ne  kış  kal dı   |  ne  *  ha *  zan    | 
a4 g2f4e2 g2f6  | g6a4a4a4g2  | f4 e2{a}g2 f2f8-f2  | \
w:  SAZ  |  Bah ti yar  o  |  lur  *  *  mu *  sun   | 
z4 d2e4=c4d4B2  | 
w:  mu râ da  e  | 
B4 A2=c2 B2A8-A2  | z4 A2B2 G2A2 B2c2 d2e2  | \
w:  rer  *  mi *  sin   |  mu râ *  da  *  e  | 
f4 e2d2 c2d8-d2  | 
w:  rer  *  mi *  sin    | 
a4 g2f4e2 g2f6  | g6a4a4a4g2  | f4 e2{a}g2 f2f8-f2  | \
w:  SAZ  |  Bah ti yar  o  |  lur  *  *  mu *  sun   | 
z4 d2e4=c4d4B2  | 
w:  mu râ da  e  | 
B4 A2=c2 B2A8-A2  | z4 A2B2 G2A2 B2c2 d2e2  | \
w:  rer  *  mi *  sin   |  mu râ *  da  *  e  | 
f4 e2d2 c2d8-d2  | 
w:  rer  *  mi *  sin    | 
A8-A2B2 c2d6  | =c6d4d4e4c2  | =c4 B2B2 A2A8z2  | \
w:  SAZ  |  Mev sim ler  ba  |  har  *  ol *  du   | 
A6d4=c4d6  | =c2d2 c2B2 A2G2 FEF6  | 
w:  ne  kış  kal dı   |  ne  *  *  ha *  zan   | 
E6F4D4F6  | E4 D2D2 C2D8-D2  | A8-A2B2 c2d6  | \
w:  ne  kış  kal dı   |  ne  *  ha *  zan    |  SAZ  | 
=c6d4d4e4c2  | =c4 B2B2 A2A8z2  | 
w:  Mev sim ler  ba  |  har  *  ol *  du   | 
A6d4=c4d6  | =c2d2 c2B2 A2G2 FEF6  | \
w:  ne  kış  kal dı   |  ne  *  *  ha *  zan   | 
E6F4D4F6  | E4 D2D2 C2D8-D2  | 
w:  ne  kış  kal dı   |  ne  *  ha *  zan    | 
|


